cellular/assets/icons/svg/laptop.svg

<svg xmlns="http://www.w3.org/2000/svg" xmlns:xlink="http://www.w3.org/1999/xlink" width="32" height="32" viewBox="0 0 32 32">
    <symbol id="a" viewBox="-16 -12.995 32 25.99">
        <path fill="#ccc" d="M16-12.995h-32v4.018h32v-4.018zm-31.03.97h30.06v2.077h-30.06v-2.077z"/>
        <path d="M15.516-12.511h-31.031v3.048h31.031z"/>
        <path fill="#ccc" d="M14.117-8.888h-28.235v18.705c0 1.753 1.425 3.178 3.177 3.178h21.879c1.753 0 3.179-1.425 3.179-3.178v-18.705zm-27.265.97h26.296v17.735c0 1.218-.991 2.208-2.209 2.208h-21.879c-1.217 0-2.208-.99-2.208-2.208v-17.735z"/>
        <path d="M13.633-8.402v18.22c0 1.486-1.207 2.692-2.694 2.692h-21.879c-1.486 0-2.692-1.206-2.692-2.692v-18.22h27.265z"/>
        <path fill="#fff" d="M12.062-7.104h-24.125v17.373h24.125z"/>
        <path fill="#ccc" d="M12.304-7.347h-24.609v17.857h24.609v-17.857zm-24.124.486h23.64v16.888h-23.64v-16.888zM4.217 2.416c.521-2.718-4.391-5.916-4.391-5.916s2.903 3.93 2.251 6.82c-.652 2.889 1.288 6.43 1.288 6.43h3.886s-3.556-4.614-3.034-7.334z"/>
        <path fill="none" d="M4.217 2.416c.521-2.718-4.391-5.916-4.391-5.916s2.903 3.93 2.251 6.82c-.652 2.889 1.288 6.43 1.288 6.43h3.886s-3.556-4.614-3.034-7.334z"/>
    </symbol>
    <use xlink:href="#a" width="32" height="25.99" x="-16" y="-12.995" transform="matrix(1 0 0 -1 16 16)" overflow="visible"/>
</svg>

<?xml version="1.0" encoding="utf-8"?>
<!-- Generator: Adobe Illustrator 14.0.0, SVG Export Plug-In . SVG Version: 6.00 Build 43363)  -->
<!DOCTYPE svg PUBLIC "-//W3C//DTD SVG 1.1//EN" "http://www.w3.org/Graphics/SVG/1.1/DTD/svg11.dtd">
<svg version="1.1" id="Layer_1" xmlns="http://www.w3.org/2000/svg" xmlns:xlink="http://www.w3.org/1999/xlink" x="0px" y="0px"
	 width="32px" height="32px" viewBox="0 0 32 32" enable-background="new 0 0 32 32" xml:space="preserve">
<symbol  id="a" viewBox="-16 -12.995 32 25.99">
	<path fill="#CCCCCC" d="M16-12.995h-32v4.019h32V-12.995z M-15.03-12.025h30.06v2.077h-30.06V-12.025z"/>
	<path d="M15.516-12.51h-31.03v3.047h31.03V-12.51z"/>
	<path fill="#CCCCCC" d="M14.117-8.888h-28.235V9.817c0,1.753,1.425,3.178,3.177,3.178h21.873c1.753,0,3.18-1.425,3.18-3.178V-8.888
		H14.117z M-13.148-7.918h26.296V9.817c0,1.218-0.99,2.208-2.21,2.208H-10.94c-1.217,0-2.208-0.99-2.208-2.208V-7.918z"/>
	<path d="M13.633-8.402V9.818c0,1.485-1.207,2.691-2.694,2.691h-21.88c-1.49,0-2.697-1.206-2.697-2.691V-8.402H13.63H13.633z"/>
	<path fill="#FFFFFF" d="M12.062-7.104h-24.125V10.27h24.125V-7.104z"/>
	<path fill="#CCCCCC" d="M12.304-7.347h-24.61V10.51h24.61V-7.347z M-11.82-6.861h23.64V10.02h-23.64V-6.861L-11.82-6.861z
		 M4.217,2.41c0.52-2.712-4.39-5.91-4.39-5.91s2.9,3.93,2.25,6.82C1.424,6.21,3.364,9.75,3.364,9.75H7.25
		c0,0-3.554-4.614-3.032-7.334L4.217,2.41z"/>
	<path fill="none" d="M4.217,2.416C4.737-0.302-0.173-3.5-0.173-3.5s2.9,3.93,2.25,6.82C1.424,6.21,3.364,9.75,3.364,9.75H7.25
		C7.25,9.75,3.696,5.136,4.217,2.416L4.217,2.416z"/>
</symbol>
<use xlink:href="#a"  width="32" height="25.99" x="-16" y="-12.995" transform="matrix(1 0 0 -1 16 16)" overflow="visible"/>
</svg>
